X:23
T:Boys of Malin
Z: id:dc-reel-23
M:C
L:1/8
K:A Major
ABcd e2ce|fedf edcB|ABcd e2ce|fdBc d2cB|!
ABcd e2ce|fedf edcB|ABcd e2ce|fdBc defg|]!
aAA2 cee2|abag fefg|aAA2 cee2|fdBc defg|!
aAA2 cee2|abag fefg|a2ga faec|dcBc d2cB|]!
Aece Aece|Aece d2cB|Aece Aece|dcBc d2cB:|!

